static/img/olake/olake-product-2.svg

<svg width="72" height="72" viewBox="0 0 72 72" fill="none" xmlns="http://www.w3.org/2000/svg">
<circle cx="36" cy="36" r="36" fill="#333333"/>
<path fill-rule="evenodd" clip-rule="evenodd" d="M22.6641 19.0007C22.6641 18.0802 23.4103 17.334 24.3307 17.334H29.3307C30.2512 17.334 30.9974 18.0802 30.9974 19.0007C30.9974 19.9211 30.2512 20.6673 29.3307 20.6673H25.9974V47.334H29.3307C30.2512 47.334 30.9974 48.0802 30.9974 49.0007C30.9974 49.9211 30.2512 50.6673 29.3307 50.6673H24.3307C23.4103 50.6673 22.6641 49.9211 22.6641 49.0007V19.0007ZM40.9974 19.0007C40.9974 18.0802 41.7436 17.334 42.6641 17.334H47.6641C48.5845 17.334 49.3307 18.0802 49.3307 19.0007V49.0007C49.3307 49.9211 48.5845 50.6673 47.6641 50.6673H42.6641C41.7436 50.6673 40.9974 49.9211 40.9974 49.0007C40.9974 48.0802 41.7436 47.334 42.6641 47.334H45.9974V20.6673H42.6641C41.7436 20.6673 40.9974 19.9211 40.9974 19.0007Z" fill="#7C91F8"/>
</svg>

<svg xmlns="http://www.w3.org/2000/svg" width="72" height="72" fill="none" viewBox="0 0 72 72"><circle cx="36" cy="36" r="36" fill="#333"/><path fill="#7c91f8" fill-rule="evenodd" d="M22.664 19c0-.92.746-1.666 1.667-1.666h5a1.667 1.667 0 1 1 0 3.333h-3.334v26.667h3.334a1.667 1.667 0 1 1 0 3.333h-5c-.92 0-1.667-.746-1.667-1.666zm18.333 0c0-.92.747-1.666 1.667-1.666h5c.92 0 1.667.746 1.667 1.667v30c0 .92-.747 1.666-1.667 1.666h-5a1.667 1.667 0 1 1 0-3.333h3.333V20.667h-3.333c-.92 0-1.667-.746-1.667-1.666" clip-rule="evenodd"/></svg>
